X:080
T: Wild Oats
N: O'Farrell's Pocket Companion v.1 (Sky ed. p.51)
N: "Irish"
D: "O"Sullivan Meets O'Farrell" track 8b
M: 6/8
N: "Irish"
L: 1/8
R: jig
Q: 320
K: D
z|AFD DFD|DED G2A|BGE EFE|EGE G2B|
AFA BGB|AFA B2A|B/c/dB AFd|AFD D2 :|
c/d/|efe ecA|ABA A2e|fag fdB|BcB Bcd|
ece fdf|gfe d2A|B/c/dB AFd|AFD D2 :|
